X: 2
T:Jacksons Marrai(). JMP.002
M:6/8
L:1/8
Q:120
C:"5"
S:John Miller MS. Perth, 1799.(for the fife)
O:Scotland
A:Perth
N:The name 'David R ' or 'Daniel R' is written at the bottom of the page
N:1 - Two notes here appear to have been scratched out.. This tune is 1st
N:cousin to some Irish single jig ...
H:1799
Z:vmp.C. Graebe
K:G Major
"Key D in MS"B | A2D FED | A2G ABc | G2E c2E |  G2E c2E |!
A2D FED | A2G ABc |  G2E c2E |  DED D2 :|!
|:d | dcd ABc | d2f ecA | cBc E2 c | E2 c cBA |!
ABc d2 B | c2A B2G | A2F G2E |"1" DED D2 :|]
